X: 19345
T: Jack Riordan's
R: reel
M: 4/4
K: Dmajor
dedB AGFD|EFGA B~E3|dedB AGFD|E/F/G AG FDDA|
dedB AGFD|EFGA B~E3|dedB AGFD|E/F/G AG FDD2||
edcA E2ed|cA B/c/d efgf|edcA EFGA|BGEA FDD2|
edcA E2ed|cA B/c/d efgf|edcA gfed|edcB Agfe||

